svg/vhs.svg

<svg xmlns="http://www.w3.org/2000/svg" viewBox="0 0 24 24"><path d="M4 6a2 2 0 0 0-2 2v8a2 2 0 0 0 2 2h16a2 2 0 0 0 2-2V8a2 2 0 0 0-2-2zm.54 4H7v4H4.54c-.35-.61-.54-1.3-.54-2s.19-1.39.54-2M9 10h6v4H9zm8 0h2.46c.35.61.54 1.3.54 2s-.19 1.39-.54 2H17z"/></svg>

<?xml version="1.0" encoding="UTF-8"?><!DOCTYPE svg PUBLIC "-//W3C//DTD SVG 1.1//EN" "http://www.w3.org/Graphics/SVG/1.1/DTD/svg11.dtd"><svg xmlns="http://www.w3.org/2000/svg" xmlns:xlink="http://www.w3.org/1999/xlink" version="1.1" id="mdi-vhs" width="24" height="24" viewBox="0 0 24 24"><path d="M4,6A2,2 0 0,0 2,8V16A2,2 0 0,0 4,18H20A2,2 0 0,0 22,16V8A2,2 0 0,0 20,6H4M4.54,10H7V14H4.54C4.19,13.39 4,12.7 4,12C4,11.3 4.19,10.61 4.54,10M9,10H15V14H9V10M17,10H19.46C19.81,10.61 20,11.3 20,12C20,12.7 19.81,13.39 19.46,14H17V10Z" /></svg>
